!!!COM:	Ockeghem, Johannes
!!!CDT:	~1425-1497/02/06
!!!OTL:	Se vostre cuer
!!!AGN:	Song; Chanson
!!!SCT:	Ock3020
!!!SCA:	Ock3020
!!!voices:	3
**kern	**text	**kern	**text	**kern	**text
*staff3	*staff3	*staff2	*staff2	*staff1	*staff1
*Ivox	*	*Ivox	*	*Ivox	*
*I"Contra	*	*I"Tenor	*	*I"Discantus	*
*I'C	*	*I'T	*	*I'D	*
*clefF4	*	*clefGv2	*	*clefG2	*
*k[b-e-]	*	*k[b-]	*	*k[b-]	*
*M2/1	*	*M2/1	*	*M2/1	*
*met(C|)	*	*met(C|)	*	*met(C|)	*
=1-	=1-	=1-	=1-	=1-	=1-
!!LO:TX:X=-60:Z=8:t=Form&colon; rondeau (fragmentary text)
0BB-	Se	0B-	Se	0f	Se
=2	=2	=2	=2	=2	=2
1BB-	vos-	1B-	vos-	1d	vos-
1C	-tre	1G	-tre	1e-	-tre
=3	=3	=3	=3	=3	=3
1FF	cuer	1A	cuer	1c	cuer
[1BB-	es-	2.B-	es-	1B-	es-
.	.	4A	.	.	.
=4	=4	=4	=4	=4	=4
1BB-]	-lon-	2.F	-lon-	1d	-lon-
.	.	4G	.	.	.
[1F	-gne	1A	-gne	1c	-gne
=5	=5	=5	=5	=5	=5
1F]	.	2A	de	0f	de
.	.	4B-	.	.	.
.	.	4c	.	.	.
1D	de	1d	.	.	.
=6	=6	=6	=6	=6	=6
0E-	moy a	2c	moy a	0g	moy a
.	.	1B-	.	.	.
.	.	4A	.	.	.
.	.	4G	.	.	.
=7	=7	=7	=7	=7	=7
1F	tort	[0F	tort	0a	tort
1FF	.	.	.	.	.
=8	=8	=8	=8	=8	=8
2r	.	1F]	.	1r	.
1F	Et	.	.	.	.
.	.	1D	Et	1f	Et
[2B-	que	.	.	.	.
=9	=9	=9	=9	=9	=9
2B-]	.	1E-	que	1g	que
2G	.	.	.	.	.
1A	de	1D	de	1f	de
=10	=10	=10	=10	=10	=10
1B-	vous	1BB-	vous	1d	vous
1BB-	je	1B-	je	1d	je
=11	=11	=11	=11	=11	=11
0C	n'ay[e]	1G	n'a-	1e-i	n'a-
.	.	1A	-y[e]	1e-i	-y[e]
=12	=12	=12	=12	=12	=12
0BB-	plus	2.B-	plus	2.d	plus
.	.	4c	.	4e-i	.
.	.	1d	.	2f	.
.	.	.	.	[2B-	de
=13	=13	=13	=13	=13	=13
2E-	de	2G	de	2B-]	.
2D	.	2F	.	2.f	con-
1BB-	.	1B-	con-	.	.
.	.	.	.	8e-iL	.
.	.	.	.	8fJ	.
.	.	.	.	2g	.
=14	=14	=14	=14	=14	=14
2r	.	2c	.	2e-i	.
2BB-	con-	1d	.	1f	.
2D	.	.	.	.	.
2E-	.	4c	.	2d	.
.	.	4B-	.	.	.
=15	=15	=15	=15	=15	=15
[0F	-fort,	1A	-fort,	0c	-fort,
.	.	1r	.	.	.
=16	=16	=16	=16	=16	=16
1F]	.	1A	Je	1f	Je
1r	.	1B-	.	1g	.
=17	=17	=17	=17	=17	=17
1F	Je	1c	prend-	1a	prend-
1BB-	prend-	1d	.	1f	.
=18	=18	=18	=18	=18	=18
1E-	-ray	2B-	-ray	1g	-ray
.	.	2c	.	.	.
2.D	lors	1d	.	1f	.
8E-L	.	.	.	.	.
8FJ	.	.	.	.	.
=19	=19	=19	=19	=19	=19
2G	.	2r	.	1b-	lors
2E-	.	2G	lors	.	.
2F	sur	2F	sur	2a	sur
2D	.	[2B-	Dieu	2f	.
=20	=20	=20	=20	=20	=20
1E-	Dieu	2B-]	.	1g	Dieu
.	.	2c	.	.	.
2.D	et	1d	.	2f	et
.	.	.	.	2b-	sur
4BB-	.	.	.	.	.
=21	=21	=21	=21	=21	=21
2F	.	1c	et	2a	mon
1E-	sur	.	.	2.g	a-
.	.	2B-	sur	.	.
.	.	.	.	4f	.
2F	.	2A	.	[2f	.
=22	=22	=22	=22	=22	=22
1C	mon	1G	mon	2f]	.
.	.	.	.	2e	.
2r	.	1F	a-	1f	.
[2D	a-	.	.	.	.
=23	=23	=23	=23	=23	=23
2D]	.	2BB-	.	2d	.
2C	.	2C	.	2.e-i	.
2BB-	.	2D	.	.	.
.	.	.	.	4d	.
4AA	.	2E	.	4c	.
4GG	.	.	.	4B-	.
=24	=24	=24	=24	=24	=24
0FFN	-me	0FN	-me	0AN	-me
=25	=25	=25	=25	=25	=25
0F	Qu'en	0c	Qu'en	0a	Qu'en
=26	=26	=26	=26	=26	=26
1F	ce	1.c	ce	1a	ce
1F	mon-	.	.	1a	mon-
.	.	4B-	mon-	.	.
.	.	4A	.	.	.
=27	=27	=27	=27	=27	=27
0E-	-de	0G	-de	0b-	-de
=28	=28	=28	=28	=28	=28
1E-	vous	1G	vous	1b-	vous
1F	.	1F	ne	1a	.
=29	=29	=29	=29	=29	=29
0C	.	2E	trou-	0g	.
.	.	1E	.	.	.
.	.	4D	.	.	.
.	.	4E	.	.	.
=30	=30	=30	=30	=30	=30
2r	.	2.F	.	1a	.
1F	ne	.	.	.	.
.	.	4G	.	.	.
.	.	2A	.	2f	ne
[2E-	trou-	2B-	.	[2g	trou-
=31	=31	=31	=31	=31	=31
4E-]	.	1G	.	4g]	.
4D	.	.	.	4f	.
2C	.	.	.	2e-i	.
2D	.	2F	.	2d	.
[2GG	.	2G	.	[2e-i	.
=32	=32	=32	=32	=32	=32
4GG]	.	1D	.	2e-]	.
4AA	.	.	.	.	.
2BB-	.	.	.	2.d	-ve-
2C	-ve-	1E-i	-ve-	.	.
.	.	.	.	4B-	.
2AA	.	.	.	2c	.
=33	=33	=33	=33	=33	=33
2BB-	-r&eacute;s	2.D	-r&eacute;s	1d	-r&eacute;s
2D	.	.	.	.	.
.	.	4BB-	.	.	.
2E-	.	2C	.	2r	.
2F	a-	2D	a-	2B-	a-
=34	=34	=34	=34	=34	=34
2G	.	2E-i	.	2c	.
2A	.	2F	.	2d	.
2B-	-me,	2G	.	2e-i	.
2r	.	2A	.	[2f	.
=35	=35	=35	=35	=35	=35
1BB-	a-	2F	.	2f]	.
.	.	1B-	.	2d	.
1F	.	.	.	1c	.
.	.	2A	.	.	.
=36	=36	=36	=36	=36	=36
1BB-	-me	1B-	-me	1B-	-me
2E-	Qui	2c	Qui	1r	.
2F	.	[2d	.	.	.
=37	=37	=37	=37	=37	=37
1G	.	2d]	.	1B-	Qui
.	.	4c	.	.	.
.	.	4B-	.	.	.
2F	mains	1A	.	1f	.
[2D	.	.	.	.	.
=38	=38	=38	=38	=38	=38
2D]	.	1B-	mains	1d	mains
2BB-	.	.	.	.	.
1C	[que	1G	.	1e	[que
=39	=39	=39	=39	=39	=39
1FF	moy]	2r	.	1f	moy]
.	.	2F	[que	.	.
2r	.	2D	moy]	1B-	vous
2GG	vous	[2E	vous	.	.
=40	=40	=40	=40	=40	=40
2AA	.	2E]	.	2c	voul-
2FF	.	2F	.	2d	.
2C	.	2G	.	2e	.
[2D	voul-	2F	.	[2f	.
=41	=41	=41	=41	=41	=41
4D]	.	1B-	voul-	4f]	.
4BB-	.	.	.	8eL	.
.	.	.	.	8fJ	.
2E-	.	.	.	2g	.
2C	-sit	2c	.	2a	.
[2BB-	.	[2d	-sit	[2b-	-sit
=42	=42	=42	=42	=42	=42
!!LO:TX:X=-100:Y=130:t=Contra&colon; 19/4 emended from g; 41/3 emended from d m (Cas) and d c sm (Pix)
2BB-]	.	2d]	.	4b-]	.
.	.	.	.	8aL	.
.	.	.	.	8b-J	.
1F	fai-	2.c	.	2cc	.
.	.	.	.	2a	fai-
.	.	4A	.	.	.
2E-	.	2B-	.	[2g	.
=43	=43	=43	=43	=43	=43
1D	.	1F	fai-	2g]	.
.	.	.	.	1f	-re
1C	-re	1G	-re	.	.
.	.	.	.	2e	.
=44	=44	=44	=44	=44	=44
0FFl	tort.	0Fl	tort.	0fl	tort.
==	==	==	==	==	==
*-	*-	*-	*-	*-	*-
!!!RDF**kern: l = long note in original notation
!!!RDF**kern: i = editorial accidental
!!!RDF**kern: V = start of tuplet marker
!!!RDF**kern: Z = end of tuplet marker
!!!RDF**kern: N = signum congruentiae
!!!ENC:	Jesse Rodin 17 April 2018
!!!END:	2018/04/17/
!!!EED:	Jesse Rodin
!!!EEV:	2018/07/23/
!!!ONB:	Translated from MusicXML and edited on 2018/07/23/ by Craig Sapp
!!muse2ps: C^@{COM}\nEd. @{EED}^i2I150v105,105,150Q16z18l2550t120
